components/ui-node-icon/src/sortByDescending/sortByDescending.medium.svg

<svg width="24" height="24" viewBox="0 0 24 24" fill="none" xmlns="http://www.w3.org/2000/svg">
  <path d="M20 3H1V19.1306C1 20.0151 2.0639 20.4641 2.69762 19.8471L20 3Z" fill="var(--tbl--colors--icons--clean--secondary)"/>
  <path fill-rule="evenodd" clip-rule="evenodd" d="M2 2C1.44772 2 1 2.44772 1 3C1 3.55228 1.44772 4 2 4H19C19.5523 4 20 3.55228 20 3C20 2.44772 19.5523 2 19 2H2ZM19 10C19 9.44771 18.5523 9 18 9C17.4477 9 17 9.44771 17 10V16.5858L15.7071 15.2929C15.3166 14.9024 14.6834 14.9024 14.2929 15.2929C13.9024 15.6834 13.9024 16.3166 14.2929 16.7071L17.2929 19.7071C17.4804 19.8946 17.7348 20 18 20C18.2652 20 18.5196 19.8946 18.7071 19.7071L21.7071 16.7071C22.0976 16.3166 22.0976 15.6834 21.7071 15.2929C21.3166 14.9024 20.6834 14.9024 20.2929 15.2929L19 16.5858V10Z" fill="var(--tbl--colors--icons--clean--primary)"/>
</svg>

<svg xmlns="http://www.w3.org/2000/svg" width="24" height="24" fill="none" viewBox="0 0 24 24">
  <path fill="var(--tbl--colors--icons--clean--secondary)" d="M20 3H1v16.13c0 .885 1.064 1.334 1.698.717L20 3Z"/>
  <path fill="var(--tbl--colors--icons--clean--primary)" fill-rule="evenodd" d="M2 2a1 1 0 0 0 0 2h17a1 1 0 1 0 0-2H2Zm17 8a1 1 0 1 0-2 0v6.586l-1.293-1.293a1 1 0 0 0-1.414 1.414l3 3a1 1 0 0 0 1.414 0l3-3a1 1 0 0 0-1.414-1.414L19 16.586V10Z" clip-rule="evenodd"/>
</svg>
